X:1
T:The Time I've Lost in Wooing
M:6/8
L:1/8
K:G
 D| G2 D G2 A| B3 B2 B| A2 G A2 B| c3c-B A| G2 A B2 c| d2 B e2 d| c2 A d2 d|\
 G3 G2 d| g2 G G2 A| B3 B2 B| A2 G A2 B| c3c-B A| G2 A B2 c| d2 B e2 d|\
 c2 A d2 d| G3 G2||
